X:151
U: ~ = !turn!
%%topmargin 3cm
T:The Orange Rogue
B:Traditional Irish Fiddle Tunes. Randy Miller and Jack Perron.
Z:Transcribed by Ralph Palmer
R:Waltz
L:1/8
M:3/4
K:EAeo
d2 | ef g2 e2 | d2 B2 A2 | G2 E2 F2 | G4 A2 | B3 A B2 | d2 e2 f2 |
g4 b2 | a2 g2 f2 | df g2 e2 | d2 B2 A2 | G2 E2 F2 | G4 A2 |
B3 A B2 | d3 B d2 | (Je6 | e4) f2  | g4 e2 | a4 e2 | g4 B2 |
B2 c2 d2 | Pg4 e2 | a4 f2 | g6 | B2 c2 d2 | {/a}g4 e2 | a4 f2 | Jg4 e2 |
f2 e2 d2 | B3 A B2 | d2 e2 f2 | g4 b2 | a2 g2 f2 | ef g2 e2 |
d2 B2 A2 | G2 E2 F2 | G4 A2 | B3 A B2 | d2 e2 f2 | g4 b2 |
a2 g2 f2 df g2 e2 | d2 B2 A2 | G2 E2 F2 | G4 A2 B3 A B2 | d3 B d2 | e6 | e6 |]
